X:246
T:Danza (CT 018)
R:Danza
C:Tradicional
S:Msica Tradicional Asturiana, (C) Tello & Tito. Asturies, 2001.
S:http://pagina.de/MusTradAst <telloytito@asturies.org>
N:Danza, dictada por Prudencia X. la caona, de 54 aos, de Cabaaquinta, ayuntamiento de Ayer.
N:Segn la dictadora, pueden tomar parte en esta danza hombres y mujeres.
N:Se canta por todos los danzadores a la vez.
A:Asturies
O:Cabaaquinta (Ayer)
Z:Cancioneru de Torner 018
M:6/8
L:1/8
Q:3/8=80
K:C
d2 d|
d3 c2 c|B2 B d2 d|d2 d c2 c|B3 c2 c|c2 c B2 A|G2 G c2 c|c3 B2 A|G6-|G2 z d2 d|
d3 c2 c|B2 B d2 d|d2 d c2 c|B3 c2 c|c3 B2 A|G2 G c2 c|c2 c B2 A|G6-|G2 z4 ||
W:Ai! del mio capotillo,
W:qu'ayer tarde lo moj.
W:Ea, ea, resalada,
W:dnde lo tender.
W:
W:Si lo tiendo en l'arena
W:mojadito quedar,
W:si lo tiendo en l'arena
W:todo se manchar.
W:
